!!!COA:	Josquin des Prez
!!!CDT:	~1450-1521/08/27
!!!OTL@@LAT:	Ave virgo sanctissima
!!!AGN:	Motet
!!!SCT:	NJE 23.12
!!!SCA:	New Josquin Edition 23.12
!!!voices:	5
**kern	**kern	**kern	**kern	**kern
*staff5	*staff4	*staff3	*staff2	*staff1
*Ivox	*Ivox	*Ivox	*Ivox	*Ivox
*I"Tenor5	*I"Tenor4	*I"Tenor3	*I"Tenor2	*I"Tenor1
*I'T5	*I'T4	*I'T3	*I'T2	*I'T1
*clefGv2	*clefGv2	*clefGv2	*clefGv2	*clefGv2
*k[]	*k[]	*k[]	*k[]	*k[]
*M3/1	*M3/1	*M3/1	*M3/1	*M3/1
*met(O)	*met(O)	*met(O)	*met(O)	*met(O)
=1-	=1-	=1-	=1-	=1-
!	!	!	!	!LO:TX:Z=10:t=5-ex-1 canon at the unison
0.r	0.r	0.r	0.r	0.C
=2	=2	=2	=2	=2
0.r	0.r	0.r	0.r	0D
.	.	.	.	1D
=3	=3	=3	=3	=3
0.r	0.r	0.r	0.C	1C
.	.	.	.	2G/
.	.	.	.	2.E/
.	.	.	.	4F/
.	.	.	.	2G/
=4	=4	=4	=4	=4
0.r	0.r	0.r	0D	2F/
.	.	.	.	2.A/
.	.	.	.	4G/
.	.	.	.	1c
.	.	.	1D	.
.	.	.	.	2B\
=5	=5	=5	=5	=5
0.r	0.r	0.C	1C	0c
.	.	.	2G/	.
.	.	.	2.E/	.
.	.	.	.	1r
.	.	.	4F/	.
.	.	.	2G/	.
=6	=6	=6	=6	=6
0.r	0.r	0D	2F/	1r
.	.	.	2.A/	.
.	.	.	.	1d
.	.	.	4G/	.
.	.	.	1c	.
.	.	1D	.	1d
.	.	.	2B\	.
=7	=7	=7	=7	=7
0.r	0.C	1C	0c	0e
.	.	2G/	.	.
.	.	2.E/	.	.
.	.	.	1r	1e
.	.	4F/	.	.
.	.	2G/	.	.
=8	=8	=8	=8	=8
0.r	0D	2F/	1r	0f
.	.	2.A/	.	.
.	.	.	1d	.
.	.	4G/	.	.
.	.	1c	.	.
.	1D	.	1d	1F
.	.	2B\	.	.
=9	=9	=9	=9	=9
0.C	1C	0c	0e	1G
.	2G/	.	.	2E/
.	2.E/	.	.	2.G/
.	.	1r	1e	.
.	4F/	.	.	4F/
.	2G/	.	.	2E/
=10	=10	=10	=10	=10
0D	2F/	1r	0f	1D
.	2.A/	.	.	.
.	.	1d	.	0F
.	4G/	.	.	.
.	1c	.	.	.
1D	.	1d	1F	.
.	2B\	.	.	.
=11	=11	=11	=11	=11
1C	0c	0e	1G	1E
2G/	.	.	2E/	1C
2.E/	.	.	2.G/	.
.	1r	1e	.	1r
4F/	.	.	4F/	.
2G/	.	.	2E/	.
=12	=12	=12	=12	=12
2F/	1r	0f	1D	2r
2.A/	.	.	.	2.F/
.	1d	.	0F	.
4G/	.	.	.	4E/
1c	.	.	.	4D/
.	.	.	.	4C/
.	1d	1F	.	1D
2B\	.	.	.	.
=13	=13	=13	=13	=13
0c	0e	1G	1E	1C
.	.	2E/	1C	2r
.	.	2.G/	.	2c\
1r	1e	.	1r	2B\
.	.	4F/	.	.
.	.	2E/	.	2c\
=14	=14	=14	=14	=14
1r	0f	1D	2r	1d
.	.	.	2.F/	.
1d	.	0F	.	2r
.	.	.	4E/	.
.	.	.	4D/	2B\
.	.	.	4C/	.
1d	1F	.	1D	2A/
.	.	.	.	2B\
=15	=15	=15	=15	=15
0e	1G	1E	1C	1c
.	2E/	1C	2r	1r
.	2.G/	.	2c\	.
1e	.	1r	2B\	1r
.	4F/	.	.	.
.	2E/	.	2c\	.
=16	=16	=16	=16	=16
0f	1D	2r	1d	2A/
.	.	2.F/	.	2B\
.	0F	.	2r	2A/
.	.	4E/	.	.
.	.	4D/	2B\	1e
.	.	4C/	.	.
1F	.	1D	2A/	.
.	.	.	2B\	2d\
=17	=17	=17	=17	=17
1G	1E	1C	1c	0e
2E/	1C	2r	1r	.
2.G/	.	2c\	.	.
.	1r	2B\	1r	1e
4F/	.	.	.	.
2E/	.	2c\	.	.
=18	=18	=18	=18	=18
1D	2r	1d	2A/	1r
.	2.F/	.	2B\	.
0F	.	2r	2A/	1A
.	4E/	.	.	.
.	4D/	2B\	1e	.
.	4C/	.	.	.
.	1D	2A/	.	1F
.	.	2B\	2d\	.
=19	=19	=19	=19	=19
1E	1C	1c	0e	2r
.	.	.	.	2.G/
1C	2r	1r	.	.
.	.	.	.	4F/
.	2c\	.	.	4E/
.	.	.	.	4D/
1r	2B\	1r	1e	1E
.	2c\	.	.	.
=20	=20	=20	=20	=20
2r	1d	2A/	1r	1D
2.F/	.	2B\	.	.
.	2r	2A/	1A	1r
4E/	.	.	.	.
4D/	2B\	1e	.	.
4C/	.	.	.	.
1D	2A/	.	1F	1F
.	2B\	2d\	.	.
=21	=21	=21	=21	=21
1C	1c	0e	2r	2E/
.	.	.	2.G/	2.C/
2r	1r	.	.	.
.	.	.	4F/	4D/
2c\	.	.	4E/	4E/
.	.	.	4D/	4F/
2B\	1r	1e	1E	1G
2c\	.	.	.	.
=22	=22	=22	=22	=22
1d	2A/	1r	1D	1F
.	2B\	.	.	.
2r	2A/	1A	1r	1r
2B\	1e	.	.	.
2A/	.	1F	1F	1A
2B\	2d\	.	.	.
=23	=23	=23	=23	=23
1c	0e	2r	2E/	2G/
.	.	2.G/	2.C/	2.E/
1r	.	.	.	.
.	.	4F/	4D/	4F/
.	.	4E/	4E/	4G/
.	.	4D/	4F/	4A/
1r	1e	1E	1G	2B\
.	.	.	.	2c\
=24	=24	=24	=24	=24
2A/	1r	1D	1F	1.d
2B\	.	.	.	.
2A/	1A	1r	1r	.
1e	.	.	.	4c\
.	.	.	.	4B\
.	1F	1F	1A	1A
2d\	.	.	.	.
=25	=25	=25	=25	=25
0e	2r	2E/	2G/	2B\
.	2.G/	2.C/	2.E/	1c
.	4F/	4D/	4F/	.
.	4E/	4E/	4G/	1d
.	4D/	4F/	4A/	.
1e	1E	1G	2B\	.
.	.	.	2c\	2c\
=26	=26	=26	=26	=26
1r	1D	1F	1.d	1.f
1A	1r	1r	.	.
.	.	.	4c\	1e
.	.	.	4B\	.
1F	1F	1A	1A	.
.	.	.	.	2d\
=27	=27	=27	=27	=27
2r	2E/	2G/	2B\	1.e
2.G/	2.C/	2.E/	1c	.
4F/	4D/	4F/	.	.
4E/	4E/	4G/	1d	4d\
4D/	4F/	4A/	.	4c\
1E	1G	2B\	.	2B\
.	.	2c\	2c\	2G/
=28	=28	=28	=28	=28
1D	1F	1.d	1.f	1A
1r	1r	.	.	0D
.	.	4c\	1e	.
.	.	4B\	.	.
1F	1A	1A	.	.
.	.	.	2d\	.
=29	=29	=29	=29	=29
2E/	2G/	2B\	1.e	2r
2.C/	2.E/	1c	.	1G
4D/	4F/	.	.	.
4E/	4G/	1d	4d\	2F/
4F/	4A/	.	4c\	.
1G	2B\	.	2B\	1E
.	2c\	2c\	2G/	.
=30	=30	=30	=30	=30
1F	1.d	1.f	1A	0D
1r	.	.	0D	.
.	4c\	1e	.	.
.	4B\	.	.	.
1A	1A	.	.	1r
.	.	2d\	.	.
=31	=31	=31	=31	=31
2G/	2B\	1.e	2r	0.r
2.E/	1c	.	1G	.
4F/	.	.	.	.
4G/	1d	4d\	2F/	.
4A/	.	4c\	.	.
2B\	.	2B\	1E	.
2c\	2c\	2G/	.	.
=32	=32	=32	=32	=32
1.d	1.f	1A	0D	2r
.	.	.	.	1A
.	.	0D	.	.
4c\	1e	.	.	2G/
4B\	.	.	.	.
1A	.	.	1r	1F
.	2d\	.	.	.
=33	=33	=33	=33	=33
2B\	1.e	2r	0.r	0E
1c	.	1G	.	.
1d	4d\	2F/	.	.
.	4c\	.	.	.
.	2B\	1E	.	1r
2c\	2G/	.	.	.
=34	=34	=34	=34	=34
1.f	1A	0D	2r	2r
.	.	.	1A	2.F/
.	0D	.	.	.
.	.	.	.	4E/
1e	.	.	2G/	4D/
.	.	.	.	4C/
.	.	1r	1F	1D
2d\	.	.	.	.
=35	=35	=35	=35	=35
1.e	2r	0.r	0E	1C
.	1G	.	.	.
.	.	.	.	1r
4d\	2F/	.	.	.
4c\	.	.	.	.
2B\	1E	.	1r	1c
2G/	.	.	.	.
=36	=36	=36	=36	=36
1A	0D	2r	2r	1d
.	.	1A	2.F/	.
0D	.	.	.	1d
.	.	.	4E/	.
.	.	2G/	4D/	.
.	.	.	4C/	.
.	1r	1F	1D	1d
=37	=37	=37	=37	=37
2r	0.r	0E	1C	1e
1G	.	.	.	.
.	.	.	1r	2e\
2F/	.	.	.	2e\
1E	.	1r	1c	1e
=38	=38	=38	=38	=38
0D	2r	2r	1d	2.f\
.	1A	2.F/	.	.
.	.	.	.	4e\
.	.	.	1d	2d\
.	.	4E/	.	.
.	2G/	4D/	.	1c
.	.	4C/	.	.
1r	1F	1D	1d	.
.	.	.	.	2B\
=39	=39	=39	=39	=39
0.r	0E	1C	1e	1.c
.	.	1r	2e\	.
.	.	.	2e\	4B\
.	.	.	.	4A/
.	1r	1c	1e	1G
=40	=40	=40	=40	=40
2r	2r	1d	2.f\	2F/
1A	2.F/	.	.	2.D/
.	.	.	4e\	.
.	.	1d	2d\	.
.	4E/	.	.	4C/
2G/	4D/	.	1c	4D/
.	4C/	.	.	4E/
1F	1D	1d	.	1F
.	.	.	2B\	.
=41	=41	=41	=41	=41
0E	1C	1e	1.c	2G/
.	.	.	.	1A
.	1r	2e\	.	.
.	.	2e\	4B\	4G/
.	.	.	4A/	4F/
1r	1c	1e	1G	1E
=42	=42	=42	=42	=42
2r	1d	2.f\	2F/	2D/
2.F/	.	.	2.D/	1A
.	.	4e\	.	.
.	1d	2d\	.	.
4E/	.	.	4C/	.
4D/	.	1c	4D/	2G/
4C/	.	.	4E/	.
1D	1d	.	1F	1F
.	.	2B\	.	.
=43	=43	=43	=43	=43
1C	1e	1.c	2G/	1E
.	.	.	1A	.
1r	2e\	.	.	0C
.	2e\	4B\	4G/	.
.	.	4A/	4F/	.
1c	1e	1G	1E	.
=44	=44	=44	=44	=44
1d	2.f\	2F/	2D/	2r
.	.	2.D/	1A	1F
.	4e\	.	.	.
1d	2d\	.	.	.
.	.	4C/	.	.
.	1c	4D/	2G/	2E/
.	.	4E/	.	.
1d	.	1F	1F	1D
.	2B\	.	.	.
=45	=45	=45	=45	=45
1e	1.c	2G/	1E	2C;/
.	.	1A	.	2.C/
2e\	.	.	0C	.
.	.	.	.	4D/
2e\	4B\	4G/	.	4E/
.	4A/	4F/	.	4F/
1e	1G	1E	.	4G/
.	.	.	.	4A/
.	.	.	.	4B\
.	.	.	.	4c\
=46	=46	=46	=46	=46
2.f\	2F/	2D/	2r	1d
.	2.D/	1A	1F	.
4e\	.	.	.	.
2d\	.	.	.	1r
.	4C/	.	.	.
1c	4D/	2G/	2E/	.
.	4E/	.	.	.
.	1F	1F	1D	1d
2B\	.	.	.	.
=47	=47	=47	=47	=47
1.c	2G/	1E	2C/	2.e;\
.	1A	.	2.C/	.
.	.	.	.	4d\
.	.	0C	.	2e\
.	.	.	4D/	.
4B\	4G/	.	4E/	1f
4A/	4F/	.	4F/	.
1G	1E	.	4G/	.
.	.	.	4A/	.
.	.	.	4B\	2e\
.	.	.	4c\	.
=48	=48	=48	=48	=48
2F/	2D/	2r	1d	2.f\
2.D/	1A	1F	.	.
.	.	.	.	4e\
.	.	.	1r	4f\
4C/	.	.	.	4e\
4D/	2G/	2E/	.	4d\
4E/	.	.	.	4c\
1F	1F	1D	1d	2.B\
.	.	.	.	4A/
=49	=49	=49	=49	=49
2G/	1E	2C/	2.e\	1.c;
1A	.	2.C/	.	.
.	.	.	4d\	.
.	0C	.	2e\	.
.	.	4D/	.	.
4G/	.	4E/	1f	2F/
4F/	.	4F/	.	.
1E	.	4G/	.	1G
.	.	4A/	.	.
.	.	4B\	2e\	.
.	.	4c\	.	.
=50	=50	=50	=50	=50
2D/	2r	1d	2.f\	1A
1A	1F	.	.	.
.	.	.	4e\	.
.	.	1r	4f\	2D/
.	.	.	4e\	.
2G/	2E/	.	4d\	2E/
.	.	.	4c\	.
1F	1D	1d	2.B\	1F
.	.	.	4A/	.
=51	=51	=51	=51	=51
1E	2C/	2.e\	1.c	1G;
.	2.C/	.	.	.
.	.	4d\	.	.
0C	.	2e\	.	2C/
.	4D/	.	.	.
.	4E/	1f	2F/	2D/
.	4F/	.	.	.
.	4G/	.	1G	1E
.	4A/	.	.	.
.	4B\	2e\	.	.
.	4c\	.	.	.
=52	=52	=52	=52	=52
2r	1d	2.f\	1A	1D
1F	.	.	.	.
.	.	4e\	.	.
.	1r	4f\	2D/	2r
.	.	4e\	.	.
2E/	.	4d\	2E/	2G/
.	.	4c\	.	.
1D	1d	2.B\	1F	1F
.	.	4A/	.	.
=53	=53	=53	=53	=53
!LO:N:vis=2	!LO:N:vis=2.	!LO:N:vis=1.	!LO:N:vis=1	!
0.C;	0.e;	0.c;	0.G;	0.El
==	==	==	==	==
*-	*-	*-	*-	*-
!!!RDF**kern: l=long note in original notation
!!!RDF**kern: i=editorial accidental
!!!ENC:	Will Watson 30/06/2011
!!!END:	2011/06/30/
!!!EED:	Jesse Rodin
!!!EEV:	2011/08/17/
!!attribution-level@Jos: 4 (questionable)
!!!ONB:	Translated from MusicXML and edited on 2011/08/17/ by Craig Sapp
!!muse2ps: C^@{COA}?\n@{SCT}^i2I150v100,100,100,100,130Q16
